packages/core/src/svgs/tokens/mono/KUB.svg

<svg width="24" height="24" viewBox="0 0 24 24" fill="none" xmlns="http://www.w3.org/2000/svg">
<path d="M15.25 6.13C15.35 5.895 15.485 5.68 15.665 5.5L22 11.735L15.65 18.485L11.105 13.835C11.2796 13.6558 11.4885 13.5135 11.719 13.4163C11.9495 13.319 12.1972 13.2689 12.4475 13.2689C12.6977 13.2689 12.9454 13.319 13.1759 13.4163C13.4065 13.5135 13.6153 13.6558 13.7899 13.835L15.655 15.74L19.3149 11.74L15.665 8.24999C15.3043 7.88344 15.103 7.38924 15.105 6.875C15.105 6.62 15.1549 6.365 15.2549 6.13H15.25ZM17 11.75C17 12.0815 16.8683 12.3994 16.6338 12.6339C16.3994 12.8683 16.0815 13 15.7499 13C15.4185 13 15.1005 12.8683 14.8661 12.6339C14.6317 12.3994 14.5 12.0815 14.5 11.75C14.5 11.4185 14.6317 11.1006 14.8661 10.8661C15.1005 10.6317 15.4185 10.5 15.7499 10.5C16.0815 10.5 16.3994 10.6317 16.6338 10.8661C16.8683 11.1006 17 11.4185 17 11.75ZM8.33499 18.5C8.69355 18.132 8.89422 17.6387 8.89422 17.125C8.89422 16.6113 8.69355 16.1179 8.33499 15.75L4.685 11.775L8.34999 8.26L10.21 10.165C10.384 10.3446 10.5922 10.4875 10.8224 10.5854C11.0525 10.6832 11.2999 10.7341 11.55 10.735C12.055 10.735 12.5 10.395 12.85 10.03L8.34999 5.51L2 11.775L8.33499 18.5ZM9.49998 11.75C9.49998 12.0815 9.36829 12.3994 9.13387 12.6339C8.89946 12.8683 8.5815 13 8.24998 13C7.91846 13 7.60053 12.8683 7.36611 12.6339C7.13169 12.3994 7 12.0815 7 11.75C7 11.4185 7.13169 11.1006 7.36611 10.8661C7.60053 10.6317 7.91846 10.5 8.24998 10.5C8.5815 10.5 8.89946 10.6317 9.13387 10.8661C9.36829 11.1006 9.49998 11.4185 9.49998 11.75Z" fill="white"/>
</svg>

<svg xmlns="http://www.w3.org/2000/svg" width="24" height="24" fill="none" viewBox="0 0 24 24">
    <path fill="#fff" d="M15.25 6.13c.1-.235.235-.45.415-.63L22 11.735l-6.35 6.75-4.545-4.65a1.874 1.874 0 0 1 2.685 0l1.865 1.905 3.66-4-3.65-3.49a1.95 1.95 0 0 1-.41-2.12zM17 11.75a1.25 1.25 0 1 1-2.5 0 1.25 1.25 0 0 1 2.5 0M8.335 18.5a1.97 1.97 0 0 0 0-2.75l-3.65-3.975L8.35 8.26l1.86 1.905a1.87 1.87 0 0 0 1.34.57c.505 0 .95-.34 1.3-.705l-4.5-4.52L2 11.775zM9.5 11.75a1.25 1.25 0 1 1-2.5 0 1.25 1.25 0 0 1 2.5 0"/>
</svg>
